X: 181
T:The Shores of Loch Bee
M:4/4
L:1/8
F:http://blackrosetheband.googlepages.com/ABCTUNES.ABC May 2009
S:Source: Angus Sessions Podcast
K:D
A|"D"D>D DF A>F E F/2E/2|D>C DF A2 A F/2A/2|"G"B A/2B/2 d>A "D"Bd A B/2A/2|FD F A/2F/2 "A"E2 EA|
"D"D>C DF A>F E F/2E/2|D>C DF A2 A F/2A/2|"G"B A/2B/2 d>A "D"Bd A B/2A/2 |FD "A"FE/2F/2 "D"D2 DA|
"G"B>c BA BddF|"D"A>B AF A2 A F/2A/2|"G"B>c BA Bdd B/2A/2|"D"FD F A2/F/2 "A"E2 EA|
"G"B>c BA BddF|"D"A>B AF A2 A F/2A/2|"G"B A/2B/2 "D"d>A Bd A B/2A/2|FD "A"F E/2F/2 "D"D2 D2||

